img/icons/volume-on.svg

<svg width="24" height="24" viewBox="0 0 24 24" fill="none" xmlns="http://www.w3.org/2000/svg">
<path d="M16.0004 9.00179C16.6281 9.83745 17 10.8762 17 12.0018C17 13.1274 16.6281 14.1661 16.0004 15.0018M18 5.29347C19.8412 6.94144 21 9.33629 21 12.0018C21 14.6673 19.8412 17.0622 18 18.7101M4.6 9.00179H5.5012C6.05213 9.00179 6.32759 9.00179 6.58285 8.93312C6.80903 8.87227 7.02275 8.77216 7.21429 8.63737C7.43047 8.48524 7.60681 8.27362 7.95951 7.85038L10.5854 4.69929C11.0211 4.17647 11.2389 3.91506 11.4292 3.88785C11.594 3.86429 11.7597 3.92429 11.8712 4.04788C12 4.1906 12 4.53087 12 5.21143V18.7922C12 19.4727 12 19.813 11.8712 19.9557C11.7597 20.0793 11.594 20.1393 11.4292 20.1157C11.239 20.0885 11.0211 19.8271 10.5854 19.3043L7.95951 16.1532C7.60681 15.73 7.43047 15.5184 7.21429 15.3662C7.02275 15.2314 6.80903 15.1313 6.58285 15.0705C6.32759 15.0018 6.05213 15.0018 5.5012 15.0018H4.6C4.03995 15.0018 3.75992 15.0018 3.54601 14.8928C3.35785 14.7969 3.20487 14.6439 3.10899 14.4558C3 14.2419 3 13.9618 3 13.4018V10.6018C3 10.0417 3 9.76172 3.10899 9.5478C3.20487 9.35964 3.35785 9.20666 3.54601 9.11079C3.75992 9.00179 4.03995 9.00179 4.6 9.00179Z" stroke="#B5B5B5" stroke-width="2" stroke-linecap="round" stroke-linejoin="round"/>
</svg>

<?xml version="1.0" encoding="utf-8"?>
<!-- Generator: Adobe Illustrator 27.5.0, SVG Export Plug-In . SVG Version: 6.00 Build 0)  -->
<svg version="1.1" id="Layer_1" xmlns="http://www.w3.org/2000/svg" xmlns:xlink="http://www.w3.org/1999/xlink" x="0px" y="0px"
	 viewBox="0 0 24 24" style="enable-background:new 0 0 24 24;" xml:space="preserve">
<style type="text/css">
	.st0{fill:none;stroke:#01050F;stroke-width:2;stroke-linecap:round;stroke-linejoin:round;}
</style>
<path class="st0" d="M16,9c0.6,0.8,1,1.9,1,3s-0.4,2.2-1,3 M18,5.3c1.8,1.6,3,4,3,6.7c0,2.7-1.2,5.1-3,6.7 M4.6,9h0.9
	c0.6,0,0.8,0,1.1-0.1C6.8,8.9,7,8.8,7.2,8.6C7.4,8.5,7.6,8.3,8,7.9l2.6-3.2c0.4-0.5,0.7-0.8,0.8-0.8c0.2,0,0.3,0,0.4,0.2
	C12,4.2,12,4.5,12,5.2v13.6c0,0.7,0,1-0.1,1.2c-0.1,0.1-0.3,0.2-0.4,0.2c-0.2,0-0.4-0.3-0.8-0.8L8,16.2c-0.4-0.4-0.5-0.6-0.7-0.8
	c-0.2-0.1-0.4-0.2-0.6-0.3C6.3,15,6.1,15,5.5,15H4.6c-0.6,0-0.8,0-1.1-0.1c-0.2-0.1-0.3-0.2-0.4-0.4C3,14.2,3,14,3,13.4v-2.8
	C3,10,3,9.8,3.1,9.5c0.1-0.2,0.2-0.3,0.4-0.4C3.8,9,4,9,4.6,9z"/>
</svg>
